X:1
T: John O'Neill's Reel
C:
R:Reel
Q: 232
K:D
M:4/4
L:1/8
|:A|Bc BA FA Ac|BE ((3EDE) FE FA|Bc BA FA AB|AB de fd dA|
Bc BA FA Ac|BE ((3EDE) FE FA|Bc BA FA AB|AB de fd de|
f2 fd e2 ed|fg fd ed Bd|fg fe de dB|AB de fd de|
f2 fd e2 ed|fg fd ed Bd|fa ((3aga) bg af|ed eg fd d:|
